X: 01039
T: DOUGAN'S REEL
C: Bob McQuillen Oct'75
B: Bob's Note Book 1 #39
%R: reel, hornpipe
Z: 2019 John Chambers <jc:trillian.mit.edu>
M: C
L: 1/8
K: D
ag \
| fdcd Adcd | fddf abag | fdcd Adcd | Beee Beee |
| fdcd Adcd | fddf abag | fddd Addd | edef d2 :|
|: fg \
| affa geeg | fddf eABc | dcde fgaf | eaab a2fg |
| affa geeg | fddf eABc | defg abag | fdec d2 :|
%%begintext align
%% For Stephan Dougan - who
%% will really, as the old hymn says,
%% "Brighten the Corner" where you are.
%%endtext

%%sep 1 1 500

%%sep 1 1 500

